assets/picpay/original.svg

<svg viewBox="0 0 24 24" xmlns="http://www.w3.org/2000/svg" fill="#21C25E"><path d="m16.463 1.587v7.537h7.537v-7.537zm1.256 1.256h5.025v5.025h-5.025zm1.256 1.256v2.513h2.513v-2.513zm-15.205 1.256v3.175h3.376c2.142 0 3.358 1.04 3.358 2.939 0 1.947-1.216 3.011-3.358 3.011h-3.377v-5.95h-3.769v13.884h3.769v-4.76h3.57c4.333 0 6.815-2.352 6.815-6.32 0-3.771-2.482-5.978-6.814-5.978z"/></svg>

<svg xmlns="http://www.w3.org/2000/svg" fill="#21c25e" viewBox="0 0 24 24"><path d="M16.463 1.587v7.537H24V1.587zm1.256 1.256h5.025v5.025h-5.025zm1.256 1.256v2.513h2.513V4.099zM3.77 5.355V8.53h3.376c2.142 0 3.358 1.04 3.358 2.939 0 1.947-1.216 3.011-3.358 3.011H3.769V8.53H0v13.884h3.769v-4.76h3.57c4.333 0 6.815-2.352 6.815-6.32 0-3.771-2.482-5.978-6.814-5.978z"/></svg>
